X:1
T:Title
%%score ( 1 2 ) ( 3 4 )
L:1/8
Q:1/4=105
M:4/4
K:Bb
V:1 treble nm="Grand Piano, Soprano"
V:2 treble 
V:3 bass nm="Choir Pad, St. Pierre, Daniel B. Towner"
V:4 bass 
V:1
 [DF]2 [Fd]2- [Fd][Ec] [DB]2 | [B,D]2 [DF]2 [FB]2 [EA]2- | [EA][EG] [CF]2- [CF]C [CF]2 | %3
w: By~Daniel~Brink~Towner,~1893 * * * *|||
 [CE]2 [B,D]6 | [B,D]2 [DG]2- [DG][GA][GB][GB] | [GA]>G [^Fd]6 | [DA]2 [=Ec]2- [Ec]F [FA]2 | %7
w: ||||
 [=EG]2 F6 | F2 [Fe]2- [Fe][Fc]AG | [EF]2 [Fd]2- [Fd][DB][DF][B,D] | %10
w: |||
 [DF][FB] [EA]2- [EA][EG] [DF]2 | [Fe]2 [Fd]6 | [Fd]2 [Ff]2- [Ff][Ff] [Fe]2 | %13
w: |||
 [Fd]2 [Gc]2 [GB]2 [Ge]2 | [_DG]2 [=DF][_D=E] [=DF][Fe] [Fd]2- | [Fd][Ec] [DB]6- | [DB]2 z2 z4 |] %17
w: ||||
V:2
 x8 | x8 | x8 | x8 | x8 | x8 | x8 | x8 | z4 z2 E2 | x8 | x8 | x8 | x8 | x8 | x8 | x8 | x8 |] %17
V:3
 [B,,B,]2 [B,,B,]2- [B,,B,][B,,F,] [B,,F,]2 | [B,,F,]2 [B,,B,]2 [D,B,]2 [F,C]2- | %2
 [F,C][F,C] [F,A,]2- [F,A,][F,A,] [F,A,]2 | [F,A,]2 [B,,B,]6 | B,2 [G,B,]2- [G,B,][G,C][G,D][G,D] | %5
 [G,C]>[G,B,] [D,A,]6 | [D,^F,]2 [C,G,]2- [C,G,][C,A,] [C,C]2 | [C,B,]2 [F,A,]6 | %8
 [F,A,]2 [F,A,]2- [F,A,][F,A,] F,2 | [F,A,]2 [B,,B,]2- [B,,B,][B,,F,] [B,,B,]2 | %10
 B,D [F,C]2- [F,C][F,C] [F,B,]2 | [F,A,]2 [B,,B,]6 | [B,,B,]2 [D,B,]2- [D,B,][D,B,] [C,A,]2 | %13
 [B,,B,]2 [E,B,]2 [E,B,]2 [E,B,]2 | [D,B,]2 [F,B,]2 B,C [F,B,]2- | [F,B,][F,A,] [B,,B,]6- | %16
 [B,,B,]2 z2 z4 |] %17
V:4
 x8 | x8 | x8 | x8 | x8 | x8 | x8 | x8 | x8 | x8 | B,,2 z2 z4 | x8 | x8 | x8 | z4 F,2 z2 | x8 | %16
 x8 |] %17

